X: 38299
T: St. Patrick's An Dro
R: polka
M: 2/4
K: Eminor
EFGF|:E2B2 G2E2|F2B2 ABAG|F3E G2EG|F3D EFGF|
E2B2 G2E2|F2B2 ABAF|G2EF GEFD|1 E3B, EFGF:|2 E3B, EFGA||
B2B2 A2d2|B2G2 EFGB|A3B ABAG|F4 EFGA|
B2B2 A2d2|B2G2 EFGB|A3F GEFD|1 E3B, EFGA:|2 E3B, EFGF||

